X: 1
T: Loic Denis'
R: strathspey
Z: 2019 John Chambers <jc:trillian.mit.edu>
M: C
L: 1/8
K: Amix
"A"|:\
"Em"B<e e>f e<d B>A | "G"B<d d>e "A"d<B A2 |\
"Em"B<e e>f e<d B>A | "G"B>d f<d "A"e2 e>f :|
"B"[|]\
"A"e<f a>f "D"f<e d2 | "Em"f<e e>f "Bm"e>d B2 |\
"A"e<f a>f "Bm"f<e d>B | "G"d>e f>d "A"e2 e>f ||
"F#m"e<f a>f "Bm"f<e d2 | "Em"f<e e>f "A"e<d B>A |\
"D"f<a "A"e<f "Bm"d<e B>A | "G"B>d f<d "A"e2 e2 |]
